X: 33954
T: Redford Cottage
R: jig
M: 6/8
K: Dmajor
|:d2 e|f2 A A>BA|B<GB Aef|g2 e f2 d|efd cB<A|
f2 A A>BA|B<GB g3|Bed c>Bc|d3:|
|:dfg|a2 f g2 e|f/g/ag fed|g2 e f2 d|ef/e/d cBA|
[1 aff gee|fag fed|Bed cBc|d3:|
[2 fAA A>BA|B<GB g3|Bed c>Bc|d3||
|:d2 e|fef A>BA|B<dc BAB|A>BA fed|cf/e/d cBA|
fef A>BA|B<GB g3|Bed c>Bc|d3:|
|:dfg|aAa fed|f<ag fed|gag fed|efd cBA|
[1 aAa fed|f<ag fed|Bed c>Bc|d3:|
[2 f2 A A>BA|B<GB g3|Bed c>Bc|d3||

